usr/share/icons/biglinux-icons-material/16/actions/format-text-uppercase.svg

<svg xmlns="http://www.w3.org/2000/svg" viewBox="0 0 16 16">
  <defs id="defs3051">
    <style type="text/css" id="current-color-scheme">
      .ColorScheme-Text {
        color:#363636;
      }
      .ColorScheme-Highlight {
        color:#3daee9;
      }
      </style>
  </defs>
  <path 
        style="fill:currentColor;fill-opacity:1;stroke:none"
        d="M 3.8261719 5.9980469 L 0.99609375 13.998047 L 2.140625 13.998047 L 3.1132812 11.712891 L 5.8378906 11.712891 L 6.7109375 13.998047 L 7.8535156 13.998047 L 5.2636719 5.9980469 L 3.8261719 5.9980469 z M 8.7109375 6 L 8.7109375 14 L 12.710938 14 A 2.285714 2.285714 0 0 0 14.996094 11.714844 A 2.285714 2.285714 0 0 0 13.462891 9.5605469 A 2.285714 2.285714 0 0 0 13.853516 8.2851562 A 2.285714 2.285714 0 0 0 11.566406 6 L 9.28125 6 L 8.7109375 6 z M 9.8535156 7.1425781 L 11.566406 7.1425781 A 1.142857 1.142857 0 0 1 12.708984 8.2851562 A 1.142857 1.142857 0 0 1 11.566406 9.4277344 L 9.8535156 9.4277344 L 9.8535156 7.1425781 z M 4.5429688 7.2382812 L 5.6152344 10.570312 L 3.359375 10.570312 L 4.5429688 7.2382812 z M 9.8535156 10.572266 L 12.710938 10.572266 A 1.142857 1.142857 0 0 1 13.853516 11.714844 A 1.142857 1.142857 0 0 1 12.710938 12.857422 L 9.8535156 12.857422 L 9.8535156 10.572266 z "
        class="ColorScheme-Text"
        />
  <path 
        style="fill:currentColor;fill-opacity:1;stroke:none"
        d="m 8.71,5 5,0 -2.5,-3 z"
        class="ColorScheme-Highlight"
        />
</svg>

<svg xmlns="http://www.w3.org/2000/svg" viewBox="0 0 16 16"><path d="m3.826 5.998-2.83 8h1.145l.972-2.285h2.725l.873 2.285h1.143l-2.59-8H3.826zM8.711 6v8h4a2.286 2.286 0 0 0 2.285-2.285 2.286 2.286 0 0 0-1.533-2.154 2.286 2.286 0 0 0 .39-1.276A2.286 2.286 0 0 0 11.567 6H8.711zm1.143 1.143h1.712a1.143 1.143 0 0 1 1.143 1.142 1.143 1.143 0 0 1-1.143 1.143H9.854V7.143zm-5.311.095 1.072 3.332H3.36l1.184-3.332zm5.31 3.334h2.858a1.143 1.143 0 0 1 1.143 1.143 1.143 1.143 0 0 1-1.143 1.142H9.854v-2.285z" style="fill:currentColor;fill-opacity:1;stroke:none;color:#dedede"/><path d="M8.71 5h5l-2.5-3z" style="fill:currentColor;fill-opacity:1;stroke:none;color:#3daee9"/></svg>
